!!!COM: Schiørring, Niels
!!!CDT: 1743-1798
!!!OPR@@DA: Choral-Bog
!!!ONM: 1
!!!OTL@@DA: Ach! Herre from
**kern	**fb	**kern	**kern	**kern	**kern	**kern	**kern	**kern
*part6	*part6	*part6	*part5	*part5	*part4	*part3	*part2	*part1
*staff8	*	*staff7	*staff6	*staff5	*staff4	*staff3	*staff2	*staff1
*clefF4	*	*clefC1	*clefF4	*clefC1	*clefF4	*clefC4	*clefC3	*clefC1
*	*	*	*	*	*	*Trd0c0	*	*
*k[]	*	*k[]	*k[]	*k[]	*k[]	*k[]	*k[]	*k[]
*M4/4	*	*M4/4	*M4/4	*M4/4	*M4/4	*M4/4	*M4/4	*M4/4
*met(c)	*	*met(c)	*met(c)	*met(c)	*met(c)	*met(c)	*met(c)	*met(c)
*	*	*	*^	*^	*	*	*	*
2C	.	2cc	2ryy	2C	2e	2g	2C	2ee	2g	2cc
=1	=1	=1	=1	=1	=1	=1	=1	=1	=1	=1
2G	.	2b	2d	2G	2b	2g	2G	2dd	2g	2b
2D	7 #	2a	2c	2D	2a	2f#X	2D	2cc	2f#X	2a
=2	=2	=2	=2	=2	=2	=2	=2	=2	=2	=2
2GG	.	2g	2B	2G	2g	2d	2GG	2b	2g	2g
2C	-7	2g	2B-X	2C	2g	2e	2C	2b-X	2e	2g
=3	=3	=3	=3	=3	=3	=3	=3	=3	=3	=3
2F	.	2a	2A	2F	2a	2c	2F	2a	2c	2a
2D	6	2b	2F	2D	2bni	2f	2D	2f	2d	2b
=4	=4	=4	=4	=4	=4	=4	=4	=4	=4	=4
2C	.	2cc	2G	2C	2cc	2e	2C	2g	2e	2cc
2GG	.	2dd	2G	2GG	2dd	2b	2GG	2b	2g	2dd
=5	=5	=5	=5	=5	=5	=5	=5	=5	=5	=5
2AA	6	2cc	2F#X	2AA	2cc	2a	2AA	2cc	2f#X	2cc
4BB	6	2b	2G	4BB	2b	2d	(4BB	2dd	2g	2b
4C	.	.	.	4C	.	.	4C)	.	.	.
=6	=6	=6	=6	=6	=6	=6	=6	=6	=6	=6
2D	#	2a	2F#X	2D	2a	1d	2D	2dd	2f#X	2a
2GG	.	2b	[2G	2GG	2b	.	2GG	2dd	[2g	2b
=7	=7	=7	=7	=7	=7	=7	=7	=7	=7	=7
2C	6 5	1a	2G]	2C	1a	2e	(2C	(2ee	(2g]	1a
2D	#	.	2F#X	2D	.	2d	2D)	4dd	2f#X)	.
.	.	.	.	.	.	.	.	4cc)	.	.
=8	=8	=8	=8	=8	=8	=8	=8	=8	=8	=8
*	*	*	*	*	*	*^	*	*	*	*
2GG	.	2g	2G	2GG	2g	2B	2d/	2GG	2b	2g	2g
2E	6	2cc	2G	2E	2cc	2c	2g/	2E	2cc	2g	2cc
*	*	*	*	*	*	*v	*v	*	*	*	*
=9	=9	=9	=9	=9	=9	=9	=9	=9	=9	=9
2D	6	2b	2F	2D	2b	2d	2D	2dd	2f	2b
2C	.	2cc	2E	2C	2cc	2g	2C	2ee	2g	2cc
=10	=10	=10	=10	=10	=10	=10	=10	=10	=10	=10
2GG	.	2dd	2G	2GG	2dd	2b	2GG	2b	2g	2dd
2BB	6	2dd	2G	2BB	2dd	2g	2BB	2dd	2g	2dd
=11	=11	=11	=11	=11	=11	=11	=11	=11	=11	=11
2C	.	2ee	2c	2C	2ee	2g	2C	2cc	2g	2ee
2AA	6	2cc	2c	2A	2cc	2f#X	2AA	2cc	2f#X	2cc
=12	=12	=12	=12	=12	=12	=12	=12	=12	=12	=12
2GG	.	2dd	2B	2G	2dd	2d	2GG	2b	2d	2dd
2E	6	2g	2c	2E	2g	2g	2E	2cc	2g	2g
=13	=13	=13	=13	=13	=13	=13	=13	=13	=13	=13
2E-X	4 2	2a	2c	2E-X	2a	2f	2E-X	2cc	2f	2a
2D	6	2b	2d	2D	2b	2f	2D	2dd	2f	2b
=14	=14	=14	=14	=14	=14	=14	=14	=14	=14	=14
2Eni	6	2cc	2c	2Eni	2cc	2g	2Eni	2cc	2g	2cc
2C	.	2ee	[2c	2C	2ee	2g	2C	[2cc	2g	2ee
=15	=15	=15	=15	=15	=15	=15	=15	=15	=15	=15
2F	6 5	1dd	2c]	2F	1dd	2a	2F	(2cc]	(2a	1dd
2G	.	.	2B	2G	.	2g	2G	2b)	4g	.
.	.	.	.	.	.	.	.	.	4f)	.
=16	=16	=16	=16	=16	=16	=16	=16	=16	=16	=16
2C	.	2cc	2c	2C	2cc	2g 2e	2C	2cc	2e	2cc
*	*	*	*v	*v	*	*	*	*	*	*
*	*	*	*	*v	*v	*	*	*	*
==	==	==	==	==	==	==	==	==
*-	*-	*-	*-	*-	*-	*-	*-	*-
!!!system-decoration: {(s1,s2,s3,s4)}{(s5,s6)}{(s7,s8)}
!!!RDF**kern: i = editorial accidental
!!!AGN: chorale
!!!EED: Derek Remeš
!!!EED2: Victor Phan
!!!END: 2023/11/28
!!!ENC: Wolfgang Drescher
!!!EEV: 2023/11/28
!!!title: @{ONM}. @{OTL}